{"type":"map","version":"1.10","orientation":"orthogonal","renderorder":"right-down","width":32,"height":14,"tilewidth":32,"tileheight":32,"infinite":false,"layers":[{"id":1,"name":"ground","type":"tilelayer","width":32,"height":14,"data":[21,18,17,19,21,16,20,17,18,17,15,17,20,19,16,15,20,22,19,20,20,16,17,21,18,15,21,15,16,22,21,18,19,15,19,19,20,19,19,18,16,19,17,17,20,17,19,21,17,20,17,19,20,17,17,19,17,15,22,17,17,20,15,21,15,19,19,21,22,21,16,22,17,17,21,17,19,19,16,17,22,16,17,15,19,15,22,17,21,21,22,21,19,5,3,3,21,19,22,22,20,22,19,20,15,20,19,19,20,17,19,17,17,16,18,16,17,22,16,15,18,15,21,21,15,8,1,1,16,17,18,21,19,19,19,18,16,22,18,15,19,20,21,16,15,5,3,3,16,18,18,19,19,17,19,15,16,8,1,1,15,22,18,19,20,15,15,20,17,22,18,20,20,17,20,21,22,8,1,1,16,19,18,16,20,18,15,20,21,8,1,1,17,19,20,21,16,15,19,20,19,19,16,20,15,22,16,18,15,8,1,1,18,22,22,22,16,20,16,15,15,7,6,6,22,22,22,19,20,19,22,17,20,15,20,16,17,19,21,20,15,8,1,1,18,15,22,21,17,17,19,22,17,20,16,22,15,17,16,15,17,21,20,22,22,22,22,16,22,21,21,15,17,8,1,1,15,22,16,20,16,20,21,16,17,22,22,17,18,18,20,18,21,21,17,19,15,17,22,21,18,22,16,17,22,7,6,6,16,22,19,21,18,16,16,15,17,17,18,20,19,19,17,19,21,19,15,21,18,22,22,21,21,19,16,16,19,15,21,19,19,20,22,16,21,19,16,21,16,19,18,20,22,22,22,20,5,3,4,15,21,20,15,20,19,15,22,21,19,19,16,21,21,18,19,22,20,20,20,17,17,20,15,22,15,15,18,18,8,1,2,22,16,18,21,16,15,19,21,15,18,21,18,20,19,17,22,22,18,16,20,16,15,21,17,21,21,19,17,21,8,1,2,21,15,17,16,21,22,17,18,20,15,20,17,15,18,21,19,22,17,18,22,20,15,17,18,19],"visible":true,"opacity":1,"x":0,"y":0},{"id":2,"name":"floor","type":"tilelayer","width":32,"height":14,"data":[0,0,0,0,0,0,0,0,0,0,0,0,0,0,0,0,0,0,0,0,0,0,0,0,0,0,0,0,0,0,0,0,0,0,0,0,0,0,0,0,0,0,0,0,0,0,0,0,0,0,0,0,0,0,0,0,0,0,0,0,0,0,0,0,0,0,0,0,0,0,0,0,0,0,0,0,0,0,0,0,0,0,0,0,0,9,11,13,14,12,14,14,0,0,0,0,0,0,13,12,13,14,12,11,9,12,0,14,11,9,12,14,0,0,0,0,0,14,9,14,9,14,10,14,0,0,0,0,0,0,11,10,10,11,12,12,9,9,0,13,12,12,14,10,0,0,0,0,0,11,13,10,14,14,9,10,0,0,0,0,0,0,9,14,11,10,12,11,10,12,9,9,14,9,9,11,0,0,0,0,0,10,10,9,11,12,10,9,0,0,0,0,0,0,9,13,12,10,11,10,13,10,0,12,10,11,14,10,0,0,0,0,0,9,14,13,14,9,10,9,0,0,0,0,0,0,14,12,13,11,11,13,12,12,0,14,9,9,9,13,0,0,0,0,0,0,0,0,9,0,0,0,0,0,0,0,0,0,12,11,11,11,11,10,14,11,0,10,10,13,9,13,0,0,0,0,0,0,0,0,0,0,0,0,0,0,0,0,0,0,10,12,12,9,12,9,11,10,0,9,10,9,14,12,0,0,0,0,0,0,0,0,0,0,0,0,0,0,0,0,0,0,0,0,0,9,0,0,0,0,0,0,0,0,0,0,0,0,0,0,0,0,0,0,0,0,0,0,0,0,0,0,0,0,0,0,0,0,0,0,0,0,0,0,0,0,0,0,0,0,0,0,0,0,0,0,0,0,0,0,0,0,0,0,0,0,0,0,0,0,0,0,0,0,0,0,0,0,0,0,0,0,0,0,0,0,0,0,0,0,0,0,0,0,0,0,0,0,0,0,0,0,0,0,0,0,0,0,0,0,0,0,0,0,0,0,0,0,0,0,0,0,0,0,0,0,0,0],"visible":true,"opacity":1,"x":0,"y":0},{"id":3,"name":"walls","type":"tilelayer","width":32,"height":14,"data":[0,0,0,0,0,0,0,0,0,0,0,0,0,0,0,0,0,0,0,0,0,0,0,0,0,0,0,0,0,0,0,0,0,0,0,0,0,0,0,0,0,0,0,0,0,0,0,0,0,0,0,0,23,23,23,23,23,23,23,23,23,0,0,0,0,23,23,23,23,23,23,23,23,23,23,23,23,23,23,23,23,0,0,0,23,0,0,0,0,0,0,0,23,0,0,0,0,23,0,0,0,0,0,0,0,0,23,0,0,0,0,0,23,0,0,0,23,0,0,0,0,0,0,0,23,0,0,0,0,23,0,0,0,0,0,0,0,0,23,0,0,0,0,0,23,0,0,0,23,0,0,0,0,0,0,0,23,0,0,0,0,23,0,0,0,0,0,0,0,0,23,0,0,0,0,0,23,0,0,0,23,0,0,0,0,0,0,0,23,0,0,0,0,23,0,0,0,0,0,0,0,0,23,0,0,0,0,0,23,0,0,0,23,0,0,0,0,0,0,0,23,0,0,0,0,23,0,0,0,0,0,0,0,0,23,0,0,0,0,0,23,0,0,0,23,23,23,23,23,23,23,23,23,0,0,0,0,23,0,0,0,0,0,0,0,0,23,0,0,0,0,0,23,0,0,0,0,0,0,0,0,0,0,0,0,0,0,0,0,23,0,0,0,0,0,0,0,0,23,0,0,0,0,0,23,0,0,0,0,0,0,0,0,0,0,0,0,0,0,0,0,23,23,23,23,23,23,23,23,23,23,23,23,23,23,23,23,0,0,0,0,0,0,0,0,0,0,0,0,0,0,0,0,0,0,0,0,0,0,0,0,0,0,0,0,0,0,0,0,0,0,0,0,0,0,0,0,0,0,0,0,0,0,0,0,0,0,0,0,0,0,0,0,0,0,0,0,0,0,0,0,0,0,0,0,0,0,0,0,0,0,0,0,0,0,0,0,0,0,0,0,0,0,0,0,0,0,0,0,0,0,0,0,0,0,0,0,0,0,0,0,0,0,0,0,0,0,0],"visible":true,"opacity":1,"x":0,"y":0},{"id":4,"name":"objects","type":"objectgroup","visible":true,"opacity":1,"x":0,"y":0,"objects":[{"id":1,"name":"cupboard","type":"cupboard","x":64,"y":96,"width":32,"height":32},{"id":2,"name":"hearth","type":"hearth","x":128,"y":96,"width":32,"height":32},{"id":3,"name":"prep_counter","type":"prep_counter","x":224,"y":96,"width":32,"height":32},{"id":4,"name":"barrel_water","type":"barrel_water","x":256,"y":128,"width":32,"height":32},{"id":5,"name":"lute","type":"lute","x":288,"y":64,"width":32,"height":32},{"id":6,"name":"rug","type":"rug","x":128,"y":128,"width":32,"height":32},{"id":7,"name":"candlestick","type":"candlestick","x":288,"y":288,"width":32,"height":32,"properties":[{"name":"rot","type":"int","value":2}]},{"id":8,"name":"plant_pot","type":"plant_pot","x":288,"y":192,"width":32,"height":32},{"id":9,"name":"washbasin","type":"washbasin","x":64,"y":160,"width":32,"height":32},{"id":10,"name":"washtub","type":"washtub","x":64,"y":224,"width":32,"height":32},{"id":11,"name":"bench","type":"bench","x":128,"y":192,"width":32,"height":32},{"id":12,"name":"dining_table","type":"dining_table","x":128,"y":224,"width":32,"height":32},{"id":13,"name":"chair","type":"chair","x":96,"y":224,"width":32,"height":32,"properties":[{"name":"rot","type":"int","value":3}]},{"id":14,"name":"chair","type":"chair","x":224,"y":224,"width":32,"height":32,"properties":[{"name":"rot","type":"int","value":1}]},{"id":15,"name":"stool","type":"stool","x":128,"y":256,"width":32,"height":32,"properties":[{"name":"rot","type":"int","value":2}]},{"id":16,"name":"spinning_wheel","type":"spinning_wheel","x":64,"y":256,"width":32,"height":32},{"id":17,"name":"bed_double","type":"bed_double","x":352,"y":96,"width":32,"height":32},{"id":18,"name":"tapestry","type":"tapestry","x":416,"y":64,"width":32,"height":32},{"id":19,"name":"wardrobe","type":"wardrobe","x":448,"y":96,"width":32,"height":32},{"id":20,"name":"chest_clothes","type":"chest_clothes","x":448,"y":224,"width":32,"height":32},{"id":21,"name":"bookshelf","type":"bookshelf","x":480,"y":160,"width":32,"height":32},{"id":22,"name":"bed_straw","type":"bed_straw","x":352,"y":224,"width":32,"height":32},{"id":23,"name":"chamber_pot","type":"chamber_pot","x":416,"y":256,"width":32,"height":32},{"id":24,"name":"rug","type":"rug","x":384,"y":160,"width":32,"height":32},{"id":25,"name":"candlestick","type":"candlestick","x":480,"y":256,"width":32,"height":32},{"id":26,"name":"outhouse","type":"outhouse","x":576,"y":32,"width":32,"height":32},{"id":27,"name":"woodpile","type":"woodpile","x":544,"y":160,"width":32,"height":32},{"id":28,"name":"chopping_block","type":"chopping_block","x":576,"y":224,"width":32,"height":32},{"id":29,"name":"well","type":"well","x":32,"y":352,"width":32,"height":32},{"id":30,"name":"plant_pot","type":"plant_pot","x":224,"y":352,"width":32,"height":32},{"id":31,"name":"oven","type":"oven","x":672,"y":64,"width":32,"height":32},{"id":32,"name":"loom","type":"loom","x":768,"y":64,"width":32,"height":32},{"id":33,"name":"workbench","type":"workbench","x":832,"y":64,"width":32,"height":32},{"id":34,"name":"brew_vat","type":"brew_vat","x":672,"y":160,"width":32,"height":32},{"id":35,"name":"churn","type":"churn","x":704,"y":160,"width":32,"height":32},{"id":36,"name":"press","type":"press","x":800,"y":160,"width":32,"height":32},{"id":37,"name":"salting_tub","type":"salting_tub","x":864,"y":160,"width":32,"height":32},{"id":38,"name":"anvil","type":"anvil","x":928,"y":96,"width":32,"height":32},{"id":39,"name":"forge","type":"forge","x":960,"y":96,"width":32,"height":32},{"id":40,"name":"smokehouse","type":"smokehouse","x":544,"y":352,"width":32,"height":32},{"id":41,"name":"field_plot","type":"field_plot","x":640,"y":320,"width":32,"height":32},{"id":42,"name":"field_plot","type":"field_plot","x":768,"y":320,"width":32,"height":32},{"id":43,"name":"orchard_tree","type":"orchard_tree","x":896,"y":320,"width":32,"height":32},{"id":44,"name":"garden_plot","type":"garden_plot","x":256,"y":352,"width":32,"height":32}]},{"id":5,"name":"markers","type":"objectgroup","visible":true,"opacity":1,"x":0,"y":0,"objects":[{"id":45,"name":"door","type":"door","x":160,"y":320,"width":32,"height":32},{"id":46,"name":"door","type":"door","x":320,"y":160,"width":32,"height":32},{"id":47,"name":"window","type":"window","x":96,"y":320,"width":32,"height":32},{"id":48,"name":"window","type":"window","x":224,"y":320,"width":32,"height":32},{"id":49,"name":"window","type":"window","x":416,"y":320,"width":32,"height":32},{"id":50,"name":"window","type":"window","x":512,"y":192,"width":32,"height":32},{"id":51,"name":"door","type":"door","x":768,"y":224,"width":32,"height":32},{"id":52,"name":"window","type":"window","x":704,"y":224,"width":32,"height":32},{"id":53,"name":"window","type":"window","x":832,"y":224,"width":32,"height":32},{"id":54,"name":"window","type":"window","x":896,"y":128,"width":32,"height":32},{"id":55,"name":"spawn","type":"spawn","x":160,"y":384,"width":32,"height":32},{"id":56,"name":"exit","type":"exit","x":160,"y":416,"width":32,"height":32}]}],"tilesets":[{"firstgid":1,"name":"ids","tilecount":23,"tilewidth":32,"tileheight":32,"columns":0,"tiles":[{"id":0,"properties":[{"name":"id","type":"string","value":"dirt_c"}]},{"id":1,"properties":[{"name":"id","type":"string","value":"dirt_e"}]},{"id":2,"properties":[{"name":"id","type":"string","value":"dirt_n"}]},{"id":3,"properties":[{"name":"id","type":"string","value":"dirt_ne"}]},{"id":4,"properties":[{"name":"id","type":"string","value":"dirt_nw"}]},{"id":5,"properties":[{"name":"id","type":"string","value":"dirt_s"}]},{"id":6,"properties":[{"name":"id","type":"string","value":"dirt_sw"}]},{"id":7,"properties":[{"name":"id","type":"string","value":"dirt_w"}]},{"id":8,"properties":[{"name":"id","type":"string","value":"floor_wood_1"}]},{"id":9,"properties":[{"name":"id","type":"string","value":"floor_wood_2"}]},{"id":10,"properties":[{"name":"id","type":"string","value":"floor_wood_3"}]},{"id":11,"properties":[{"name":"id","type":"string","value":"floor_wood_4"}]},{"id":12,"properties":[{"name":"id","type":"string","value":"floor_wood_5"}]},{"id":13,"properties":[{"name":"id","type":"string","value":"floor_wood_6"}]},{"id":14,"properties":[{"name":"id","type":"string","value":"grass_1"}]},{"id":15,"properties":[{"name":"id","type":"string","value":"grass_2"}]},{"id":16,"properties":[{"name":"id","type":"string","value":"grass_3"}]},{"id":17,"properties":[{"name":"id","type":"string","value":"grass_4"}]},{"id":18,"properties":[{"name":"id","type":"string","value":"grass_5"}]},{"id":19,"properties":[{"name":"id","type":"string","value":"grass_6"}]},{"id":20,"properties":[{"name":"id","type":"string","value":"grass_7"}]},{"id":21,"properties":[{"name":"id","type":"string","value":"grass_8"}]},{"id":22,"properties":[{"name":"id","type":"string","value":"wall_timber"}]}]}],"nextlayerid":6,"nextobjectid":57,"properties":[{"name":"lotId","type":"string","value":"cottage"}]}